X:1
T:Joy By and By
T:Franklin Edson Belden, 1886
T:Joy By and By
T:Public Domain
T:Public Domain
C:Franklin Edson Belden, 1886
Z:Public Domain
%%score ( 1 2 ) ( 3 4 )
L:1/8
M:4/4
K:Bb
V:1 treble 
V:2 treble 
V:3 bass 
V:4 bass 
V:1
 [DF]2 [^C=E][DF] [DB]2 [B,D][B,D] | [A,F]2 [A,E]2 [A,E]4 | [CA]2 [CA][DB] [Ec]2 E2 | %3
w: 1.~O there’ll be joy when the|work is done,|Joy when the reap- ers|
w: 2.~Sweet are the songs that we|hope to sing,|Grate- ful the thanks our|
w: 3.~Pure are the joys that a-|wait us there,|Ma- ny the gold- en|
 [EG]2 [DF]2 [DF]4 | [DB]2 [DB][Ec] [Fd]2 [FB]2 | [GB]2 [EG]2 [EG]2 E[EG] | %6
w: ther home, Bring-|ing the sheaves at set|of sun To the New|
w: shall bring, Prais-|ing for- ev- er Christ|our King, In the New|
w: sions fair; Je-|sus Him- self doth them|pre- pare, In the New|
 [DF]3 [DB] [B,D]2 [B,=E]2 | [A,F]6 z2 ||"^Refrain" [DF]4 ([DF][B,D])[DF][DB] | %9
w: ru- sa- lem. Joy,|joy,|there’ll be * joy by|
w: ru- sa- lem. *|||
w: ru- sa- lem. *|||
 [CA]2 [DB][DB] [Ec]4 | [CE]4 ([CE][A,C])[CE][EG] | [DF]2 [CA][EA] [DB]4 | (F2 ^F2) (dB)[GA][GA] | %13
w: and by, Joy, joy,|where the * joys nev-|er die; Joy, joy|for * the * day draw-|
w: ||||
w: ||||
 [Gc]2 [GB][GB] [EG]2 [EG][EG] | [DF]2 [Fd]2 [Fe]2 [EA]2 | [DB]8 |] %16
w: When the work- ers ga- ther|home. * * *||
w: |||
w: |||
V:2
 x8 | x8 | x6 E2 | x8 | x8 | x6 E x | x8 | x8 || x8 | x8 | x8 | x8 | d4 G2 x2 | x8 | x8 | x8 |] %16
w: ||ga-|||Je-|||||||eth nigh||||
w: ||hearts|||Je-|||||||||||
w: ||man-|||Je-|||||||||||
V:3
 [B,,B,]2 [B,,B,][B,,B,] [B,,F,]2 [B,,F,][B,,F,] | [F,,F,]2 [F,,F,]2 F,4 | %2
w: ~ ~ ~ ~ ~ ~|~ ~ ~|
 F,2 F,F, [F,A,]2 [F,A,]2 | [B,,B,]2 [B,,B,]2 [B,,B,]4 | [B,,F,]2 [B,,F,][B,,F,] [B,,B,]2 [D,B,]2 | %5
w: ~ ~ ~ ~ ~|~ ~ ~|~ ~ ~ ~ ~|
 [E,B,]2 [E,B,]2 [E,B,]2 [E,G,][E,B,] | [B,,B,]3 [B,,F,] [G,,G,]2 [C,G,]2 | [F,,F,]6 z2 || %8
w: ~ ~ ~ ~ ~|~ Joy, joy, joy,|joy|
 [B,,B,]2 [B,,B,]2 (B,F,) z2 | F,2 F,F, [F,A,]4 | [F,A,]2 [F,A,]2 (A,F,) z2 | %11
w: by and by *|joy, joy joys nev-|joy, joy * *|
 [B,,B,]2 F,F, [B,,F,]4 | ([B,,B,]2 [D,A,]2) (B,D)[F,D][F,D] | %13
w: ||
 [E,E]2 [E,E][E,E] [E,B,]2 [E,B,][E,B,] | [F,B,]2 [F,B,]2 [F,A,]2 [F,C]2 | [B,,B,]8 |] %16
w: |||
V:4
 x8 | x4 F,4 | F,2 F,F, x4 | x8 | x8 | x8 | x8 | x8 || x4 B,,2 x2 | F,2 F,F, x4 | x4 F,2 x2 | %11
w: |~|~ ~ ~||||||Joy,|er die; Joy,||
 x2 F,F, x4 | x4 G,2 x2 | x8 | x8 | x8 |] %16
w: |||||

